dist/assets/img/questions/5/answers/1_1200.svg

<svg width="581" height="252" viewBox="0 0 581 252" fill="none" xmlns="http://www.w3.org/2000/svg">
<g filter="url(#filter0_di_1419_52011)">
<path fill-rule="evenodd" clip-rule="evenodd" d="M80.8578 28C76.8412 28 73.4472 30.9784 72.9256 34.961L71.0281 49.4478C70.6343 52.4543 68.563 54.9456 65.7835 56.1572C56.1123 60.3731 43.3997 68.5443 40.0033 80.2954C39.9832 80.3647 40.06 80.4214 40.1203 80.3818V80.3818C43.794 77.9681 50.5189 73.5497 58.714 70.8666C63.5933 69.269 67.8616 73.6226 67.1949 78.7132L52.4925 190.961C51.8651 195.751 55.5939 200 60.4248 200H511.759C515.776 200 519.17 197.022 519.692 193.039L540.125 37.039C540.752 32.249 537.023 28 532.192 28H80.8578Z" fill="#FFF0CB"/>
</g>
<defs>
<filter id="filter0_di_1419_52011" x="0" y="0" width="580.193" height="252" filterUnits="userSpaceOnUse" color-interpolation-filters="sRGB">
<feFlood flood-opacity="0" result="BackgroundImageFix"/>
<feColorMatrix in="SourceAlpha" type="matrix" values="0 0 0 0 0 0 0 0 0 0 0 0 0 0 0 0 0 0 127 0" result="hardAlpha"/>
<feOffset dy="12"/>
<feGaussianBlur stdDeviation="20"/>
<feComposite in2="hardAlpha" operator="out"/>
<feColorMatrix type="matrix" values="0 0 0 0 1 0 0 0 0 1 0 0 0 0 1 0 0 0 1 0"/>
<feBlend mode="normal" in2="BackgroundImageFix" result="effect1_dropShadow_1419_52011"/>
<feBlend mode="normal" in="SourceGraphic" in2="effect1_dropShadow_1419_52011" result="shape"/>
<feColorMatrix in="SourceAlpha" type="matrix" values="0 0 0 0 0 0 0 0 0 0 0 0 0 0 0 0 0 0 127 0" result="hardAlpha"/>
<feOffset dy="-4"/>
<feGaussianBlur stdDeviation="4"/>
<feComposite in2="hardAlpha" operator="arithmetic" k2="-1" k3="1"/>
<feColorMatrix type="matrix" values="0 0 0 0 0.883659 0 0 0 0 0.635314 0 0 0 0 0.0558422 0 0 0 0.4 0"/>
<feBlend mode="normal" in2="shape" result="effect2_innerShadow_1419_52011"/>
</filter>
</defs>
</svg>

<svg width="581" height="252" viewBox="0 0 581 252" fill="none" xmlns="http://www.w3.org/2000/svg"><g filter="url(#filter0_di_1419_52011)"><path fill-rule="evenodd" clip-rule="evenodd" d="M80.858 28a8 8 0 00-7.932 6.961l-1.898 14.487c-.394 3.006-2.465 5.498-5.245 6.71-9.67 4.215-22.383 12.386-25.78 24.137-.02.07.057.126.117.087 3.674-2.414 10.399-6.832 18.594-9.515 4.88-1.598 9.148 2.756 8.48 7.846L52.493 190.961c-.627 4.79 3.102 9.039 7.933 9.039H511.76a8 8 0 007.933-6.961l20.433-156c.627-4.79-3.102-9.039-7.933-9.039H80.858z" fill="#FFF0CB"/></g><defs><filter id="filter0_di_1419_52011" x="0" y="0" width="580.193" height="252" filterUnits="userSpaceOnUse" color-interpolation-filters="sRGB"><feFlood flood-opacity="0" result="BackgroundImageFix"/><feColorMatrix in="SourceAlpha" values="0 0 0 0 0 0 0 0 0 0 0 0 0 0 0 0 0 0 127 0" result="hardAlpha"/><feOffset dy="12"/><feGaussianBlur stdDeviation="20"/><feComposite in2="hardAlpha" operator="out"/><feColorMatrix values="0 0 0 0 1 0 0 0 0 1 0 0 0 0 1 0 0 0 1 0"/><feBlend in2="BackgroundImageFix" result="effect1_dropShadow_1419_52011"/><feBlend in="SourceGraphic" in2="effect1_dropShadow_1419_52011" result="shape"/><feColorMatrix in="SourceAlpha" values="0 0 0 0 0 0 0 0 0 0 0 0 0 0 0 0 0 0 127 0" result="hardAlpha"/><feOffset dy="-4"/><feGaussianBlur stdDeviation="4"/><feComposite in2="hardAlpha" operator="arithmetic" k2="-1" k3="1"/><feColorMatrix values="0 0 0 0 0.883659 0 0 0 0 0.635314 0 0 0 0 0.0558422 0 0 0 0.4 0"/><feBlend in2="shape" result="effect2_innerShadow_1419_52011"/></filter></defs></svg>
